Simply white circles/scalable/mimes/x-office-drawing.svg

<?xml version="1.0" encoding="UTF-8" standalone="no"?>
<!-- Created with Inkscape (http://www.inkscape.org/) -->

<svg
   xmlns:dc="http://purl.org/dc/elements/1.1/"
   xmlns:cc="http://creativecommons.org/ns#"
   xmlns:rdf="http://www.w3.org/1999/02/22-rdf-syntax-ns#"
   xmlns:svg="http://www.w3.org/2000/svg"
   xmlns="http://www.w3.org/2000/svg"
   xmlns:xlink="http://www.w3.org/1999/xlink"
   xmlns:sodipodi="http://sodipodi.sourceforge.net/DTD/sodipodi-0.dtd"
   xmlns:inkscape="http://www.inkscape.org/namespaces/inkscape"
   version="1.1"
   width="48"
   height="48"
   id="svg21744"
   sodipodi:docname="x-office-drawing.svg"
   inkscape:version="0.92.3 (2405546, 2018-03-11)">
  <sodipodi:namedview
     pagecolor="#ffffff"
     bordercolor="#666666"
     borderopacity="1"
     objecttolerance="10"
     gridtolerance="10"
     guidetolerance="10"
     inkscape:pageopacity="0"
     inkscape:pageshadow="2"
     inkscape:window-width="1366"
     inkscape:window-height="719"
     id="namedview44"
     showgrid="false"
     inkscape:zoom="5.15625"
     inkscape:cx="-38.884848"
     inkscape:cy="23.224242"
     inkscape:window-x="0"
     inkscape:window-y="25"
     inkscape:window-maximized="1"
     inkscape:current-layer="svg21744"
     inkscape:snap-global="false" />
  <defs
     id="defs21746">
    <linearGradient
       x1="525.4375"
       y1="836.1875"
       x2="516.65625"
       y2="828.5"
       id="linearGradient14113"
       xlink:href="#linearGradient14494-2-7"
       gradientUnits="userSpaceOnUse"
       gradientTransform="translate(-125.5,-1702.64)" />
    <linearGradient
       id="linearGradient14494-2-7">
      <stop
         id="stop14496-9-3"
         style="stop-color:#dc85e9;stop-opacity:1"
         offset="0" />
      <stop
         id="stop14498-9-7"
         style="stop-color:#f2cbf8;stop-opacity:1"
         offset="1" />
    </linearGradient>
    <linearGradient
       x1="520.58502"
       y1="735.05206"
       x2="516.15179"
       y2="720.86298"
       id="linearGradient14115"
       xlink:href="#linearGradient14494-5"
       gradientUnits="userSpaceOnUse" />
    <linearGradient
       id="linearGradient14494-5">
      <stop
         id="stop14496-5"
         style="stop-color:#dc85e9;stop-opacity:1"
         offset="0" />
      <stop
         id="stop14498-1"
         style="stop-color:#f2cbf8;stop-opacity:1"
         offset="1" />
    </linearGradient>
    <linearGradient
       x1="525.4375"
       y1="836.1875"
       x2="516.65625"
       y2="828.5"
       id="linearGradient54948"
       xlink:href="#linearGradient14494-2-7"
       gradientUnits="userSpaceOnUse"
       gradientTransform="translate(-462.50049,-802.00385)" />
    <linearGradient
       x1="520.58502"
       y1="735.05206"
       x2="516.15179"
       y2="720.86298"
       id="linearGradient14109"
       xlink:href="#linearGradient14494-5"
       gradientUnits="userSpaceOnUse"
       gradientTransform="matrix(0.512535,0,0,0.615385,-202.35949,-422.92385)" />
    <linearGradient
       x1="525.4375"
       y1="836.1875"
       x2="516.65625"
       y2="828.5"
       id="linearGradient54952"
       xlink:href="#linearGradient14494-2-7"
       gradientUnits="userSpaceOnUse"
       gradientTransform="translate(-462.50049,-797.50385)" />
    <linearGradient
       x1="209.0625"
       y1="-765.46082"
       x2="209.0625"
       y2="-781.62268"
       id="linearGradient44039"
       xlink:href="#linearGradient15606-1"
       gradientUnits="userSpaceOnUse"
       gradientTransform="matrix(1.5,0,0,1.5,-364.99949,1176.9562)" />
    <linearGradient
       id="linearGradient15606-1">
      <stop
         id="stop15608-0"
         style="stop-color:#ffffff;stop-opacity:0.58823502"
         offset="0" />
      <stop
         id="stop15610-5"
         style="stop-color:#ffffff;stop-opacity:0.86274499"
         offset="1" />
    </linearGradient>
    <linearGradient
       x1="294.3429"
       y1="256.58133"
       x2="294.41818"
       y2="243.13852"
       id="linearGradient44042"
       xlink:href="#linearGradient10286-3"
       gradientUnits="userSpaceOnUse"
       gradientTransform="matrix(2.99213,0,0,3.00466,-830.71149,-727.44385)" />
    <linearGradient
       id="linearGradient10286-3">
      <stop
         id="stop10288-8"
         style="stop-color:#b3b3b3;stop-opacity:1"
         offset="0" />
      <stop
         id="stop10290-7"
         style="stop-color:#e6e6e6;stop-opacity:1"
         offset="1" />
    </linearGradient>
    <linearGradient
       x1="110.96875"
       y1="976.29968"
       x2="110.96875"
       y2="992.375"
       id="linearGradient43236"
       xlink:href="#linearGradient4145-42"
       gradientUnits="userSpaceOnUse" />
    <linearGradient
       id="linearGradient4145-42">
      <stop
         id="stop4953"
         style="stop-color:#e694bb;stop-opacity:1"
         offset="0" />
      <stop
         id="stop4955"
         style="stop-color:#d3819a;stop-opacity:1"
         offset="0.26238" />
      <stop
         id="stop4957"
         style="stop-color:#b25a64;stop-opacity:1"
         offset="0.704952" />
      <stop
         id="stop4959"
         style="stop-color:#98313d;stop-opacity:1"
         offset="1" />
    </linearGradient>
    <linearGradient
       x1="110.96875"
       y1="976.29968"
       x2="110.99982"
       y2="991.87488"
       id="linearGradient14097-7"
       xlink:href="#linearGradient4145-42"
       gradientUnits="userSpaceOnUse"
       gradientTransform="matrix(1,0,0,1.00011,0,-0.10551)" />
    <linearGradient
       x1="110.96875"
       y1="976.29968"
       x2="110.96875"
       y2="992.375"
       id="linearGradient21742"
       xlink:href="#linearGradient4145-42"
       gradientUnits="userSpaceOnUse"
       gradientTransform="matrix(1.00399,0,0,1.00959,-1.1658,-9.36636)" />
    <clipPath
       clipPathUnits="userSpaceOnUse"
       id="clipPath867">
      <g
         inkscape:label="Clip"
         id="use869">
        <path
           d="m 47.000614,3.0210706 v 0.75 40.5000404 0.72723 h 0.75 32.499399 0.75 v -0.72723 -25.50003 -0.3282 l -0.2344,-0.2343 -14.9059,-15.0000104 -0.1875,-0.1875 h -0.3282 -17.593399 z"
           id="path875"
           style="color:#000000;font-style:normal;font-variant:normal;font-weight:normal;font-stretch:normal;font-size:medium;line-height:normal;font-family:'Andale Mono';text-indent:0pt;text-align:start;text-decoration:none;text-decoration-line:none;letter-spacing:normal;word-spacing:normal;text-transform:none;direction:ltr;text-anchor:start;display:inline;overflow:visible;visibility:visible;fill:#000000;fill-opacity:1;fill-rule:nonzero;stroke:none;stroke-width:1;marker:none"
           inkscape:connector-curvature="0" />
      </g>
    </clipPath>
  </defs>
  <metadata
     id="metadata21749">
    <rdf:RDF>
      <cc:Work
         rdf:about="">
        <dc:format>image/svg+xml</dc:format>
        <dc:type
           rdf:resource="http://purl.org/dc/dcmitype/StillImage" />
        <dc:title></dc:title>
      </cc:Work>
    </rdf:RDF>
  </metadata>
  <path
     style="color:#000000;font-style:normal;font-variant:normal;font-weight:normal;font-stretch:normal;font-size:medium;line-height:normal;font-family:'Andale Mono';text-indent:0pt;text-align:start;text-decoration:none;text-decoration-line:none;letter-spacing:normal;word-spacing:normal;text-transform:none;direction:ltr;text-anchor:start;display:inline;overflow:visible;visibility:visible;fill:#e6e6e6;fill-opacity:1;stroke:none;stroke-width:5.99873972;marker:none"
     d="M 29.705078 -0.083984375 C 27.658234 -0.075805254 25.583576 0.00449542 25.1875 0.013671875 L 7 0.013671875 C 6.813106 -0.004321175 6.624454 -0.004321175 6.4375 0.013671875 C 5.062346 0.27607036 3.975341 1.6123101 4 3.0117188 L 4 45 C 4.00015 46.570313 5.429312 47.99985 7 48 L 41 48 C 42.570687 47.99985 43.99985 46.570313 44 45 L 44 18.818359 C 44.018 18.026395 44.215294 8.8914456 43.664062 8.3222656 L 34.054688 0.24804688 C 33.770027 -0.027426575 31.751922 -0.092163496 29.705078 -0.083984375 z M 31.195312 3.0097656 L 31.328125 10.513672 C 31.340155 11.195372 31.966379 11.80479 32.644531 11.792969 L 40.416016 11.65625 C 40.548988 11.674363 40.684161 11.672765 40.816406 11.650391 L 40.898438 14.679688 L 41 18.771484 L 41 44.271484 L 41 44.998047 L 40.25 44.998047 L 7.75 44.998047 L 7 44.998047 L 7 44.271484 L 7 3.7714844 L 7 3.0214844 L 7.75 3.0214844 L 25.34375 3.0214844 L 25.671875 3.0214844 L 31.195312 3.0097656 z M 21.433594 8.5664062 C 21.286714 8.5817291 21.145311 8.6535693 21.044922 8.7773438 L 19.371094 10.839844 C 19.170316 11.087392 19.20948 11.449613 19.457031 11.650391 L 20.115234 12.185547 C 19.253558 13.844833 18.791097 15.684505 18.775391 17.537109 C 18.760851 19.25193 19.128734 20.914429 19.841797 22.394531 L 17.972656 22.738281 C 17.786476 22.772451 17.628614 22.895816 17.550781 23.068359 L 16.75 24.845703 C 16.618921 25.136141 16.748497 25.478154 17.039062 25.609375 C 17.3295 25.740454 17.669559 25.610878 17.800781 25.320312 L 18.478516 23.818359 L 24.367188 22.736328 L 21.380859 26.417969 C 20.538747 26.058864 19.52467 26.281722 18.919922 27.027344 C 18.189085 27.928429 18.329559 29.257585 19.230469 29.988281 C 20.131553 30.719119 21.458615 30.578819 22.189453 29.677734 C 22.7942 28.932112 22.802704 27.896486 22.277344 27.146484 L 25.263672 23.462891 L 25.419922 29.449219 L 19.150391 34.037109 L 15.283203 30.900391 L 15.902344 29.529297 C 16.033424 29.238859 15.903746 28.896704 15.613281 28.765625 C 15.322843 28.634546 14.980688 28.764222 14.849609 29.054688 L 14.080078 30.763672 L 12.285156 32.976562 L 11.400391 32.257812 C 11.152842 32.057035 10.788527 32.096373 10.587891 32.34375 L 8.3828125 35.0625 C 8.1820324 35.310045 8.2192481 35.674222 8.4667969 35.875 L 15.691406 41.732422 C 15.938955 41.9332 16.301174 41.895989 16.501953 41.648438 L 18.708984 38.929688 C 18.90962 38.682313 18.870599 38.317965 18.623047 38.117188 L 17.738281 37.400391 L 19.533203 35.1875 L 26.345703 30.201172 C 26.498466 30.089402 26.587028 29.909926 26.582031 29.720703 L 26.533203 27.816406 C 28.126578 28.196817 29.82862 28.207476 31.505859 27.841797 C 33.326769 27.444623 35.030976 26.618458 36.464844 25.445312 L 37.125 25.980469 C 37.372549 26.181247 37.734769 26.144036 37.935547 25.896484 L 39.609375 23.833984 C 39.810153 23.586435 39.772942 23.222262 39.525391 23.021484 L 37.460938 21.349609 C 37.213564 21.148973 36.851169 21.186042 36.650391 21.433594 L 34.976562 23.496094 C 34.775785 23.743643 34.815123 24.107958 35.0625 24.308594 L 35.548828 24.703125 C 32.970799 26.712621 29.527253 27.446454 26.501953 26.617188 L 26.376953 21.871094 C 26.37674 21.865994 26.3752 21.860899 26.375 21.855469 C 26.374278 21.842399 26.374647 21.829056 26.373047 21.816406 C 26.372074 21.808706 26.370241 21.800549 26.369141 21.792969 C 26.367241 21.780989 26.365981 21.769863 26.363281 21.757812 C 26.361581 21.750312 26.359522 21.743798 26.357422 21.736328 C 26.354122 21.724338 26.349683 21.711139 26.345703 21.699219 C 26.343203 21.692619 26.340291 21.686318 26.337891 21.679688 C 26.333091 21.667368 26.328036 21.654798 26.322266 21.642578 C 26.319566 21.636878 26.317453 21.63061 26.314453 21.625 C 26.307953 21.61221 26.300349 21.600261 26.292969 21.587891 C 26.290069 21.583191 26.288056 21.578849 26.285156 21.574219 C 26.276956 21.561459 26.267103 21.549289 26.257812 21.537109 C 26.254812 21.533209 26.2531 21.529091 26.25 21.525391 C 26.23988 21.512821 26.23008 21.500081 26.21875 21.488281 C 26.21605 21.485181 26.211984 21.481616 26.208984 21.478516 C 26.194504 21.464156 26.180343 21.4507 26.164062 21.4375 C 26.147952 21.42444 26.130141 21.413394 26.113281 21.402344 C 26.109681 21.400044 26.107296 21.396731 26.103516 21.394531 C 26.089806 21.386031 26.074937 21.378414 26.060547 21.371094 C 26.056447 21.368994 26.051305 21.367334 26.046875 21.365234 C 26.033045 21.358634 26.020049 21.353066 26.005859 21.347656 C 26.000659 21.345756 25.995404 21.343697 25.990234 21.341797 C 25.976604 21.337097 25.963239 21.331915 25.949219 21.328125 C 25.943319 21.326525 25.937721 21.325619 25.931641 21.324219 C 25.918531 21.321419 25.903665 21.318606 25.890625 21.316406 C 25.883625 21.315406 25.878094 21.315453 25.871094 21.314453 C 25.858604 21.313053 25.844461 21.311347 25.832031 21.310547 C 25.824431 21.310214 25.818257 21.310704 25.810547 21.310547 C 25.798187 21.310394 25.785418 21.310099 25.773438 21.310547 C 25.765638 21.31088 25.75778 21.311812 25.75 21.3125 C 25.73728 21.3135 25.723698 21.314306 25.710938 21.316406 C 25.705537 21.317285 25.700353 21.317459 25.695312 21.318359 L 21.023438 22.177734 C 19.548015 19.37636 19.554545 15.920736 21.03125 12.927734 L 21.519531 13.324219 C 21.76708 13.524997 22.1293 13.485833 22.330078 13.238281 L 24.003906 11.175781 C 24.204684 10.928232 24.167473 10.566012 23.919922 10.365234 L 21.855469 8.6914062 C 21.731694 8.5910173 21.580473 8.5510834 21.433594 8.5664062 z M 21.578125 9.9511719 L 22.744141 10.898438 L 21.796875 12.064453 L 20.630859 11.117188 L 21.578125 9.9511719 z M 37.183594 22.609375 L 38.349609 23.554688 L 37.404297 24.720703 L 36.236328 23.775391 L 37.183594 22.609375 z M 16.265625 26.613281 C 16.118591 26.628661 15.97894 26.700881 15.878906 26.824219 C 15.678554 27.071243 15.715862 27.434414 15.962891 27.634766 C 16.209564 27.834834 16.575039 27.797802 16.775391 27.550781 C 16.975459 27.304108 16.936305 26.938491 16.689453 26.738281 C 16.565941 26.638105 16.412659 26.597902 16.265625 26.613281 z M 20.457031 27.408203 C 20.69899 27.382961 20.949 27.45031 21.152344 27.615234 C 21.559206 27.945226 21.622818 28.544485 21.292969 28.951172 C 20.962977 29.358035 20.363894 29.421789 19.957031 29.091797 C 19.550345 28.761948 19.486414 28.162722 19.816406 27.755859 C 19.981331 27.552516 20.215073 27.433445 20.457031 27.408203 z M 14.660156 31.880859 L 18.320312 34.849609 L 16.841797 36.671875 L 13.181641 33.703125 L 14.660156 31.880859 z M 11.121094 33.517578 L 17.449219 38.650391 L 15.970703 40.472656 L 9.6425781 35.341797 L 11.121094 33.517578 z "
     id="path14075" />
</svg>

<svg xmlns="http://www.w3.org/2000/svg" width="48" height="48"><defs><linearGradient id="a"><stop offset="0" stop-color="#dc85e9"/><stop offset="1" stop-color="#f2cbf8"/></linearGradient><linearGradient id="b"><stop offset="0" stop-color="#dc85e9"/><stop offset="1" stop-color="#f2cbf8"/></linearGradient><linearGradient id="c"><stop offset="0" stop-color="#fff" stop-opacity=".588"/><stop offset="1" stop-color="#fff" stop-opacity=".863"/></linearGradient><linearGradient id="d"><stop offset="0" stop-color="#b3b3b3"/><stop offset="1" stop-color="#e6e6e6"/></linearGradient><linearGradient id="e"><stop offset="0" stop-color="#e694bb"/><stop offset=".262" stop-color="#d3819a"/><stop offset=".705" stop-color="#b25a64"/><stop offset="1" stop-color="#98313d"/></linearGradient></defs><path style="line-height:normal;text-indent:0;text-align:start;text-decoration-line:none;text-transform:none;marker:none" d="M29.705-.084c-2.047.008-4.121.088-4.517.098H7a2.938 2.938 0 0 0-.563 0C5.063.276 3.975 1.612 4 3.012V45c0 1.57 1.43 3 3 3h34c1.57 0 3-1.43 3-3V18.818c.018-.792.215-9.927-.336-10.496L34.054.248c-.284-.275-2.302-.34-4.349-.332zm1.49 3.094l.133 7.504c.012.681.638 1.29 1.317 1.279l7.771-.137c.133.018.268.017.4-.006l.082 3.03L41 18.77v26.227H7V3.021h18.672l5.523-.011zm-9.761 5.556a.577.577 0 0 0-.39.211l-1.673 2.063c-.2.247-.162.61.086.81l.658.536a11.856 11.856 0 0 0-1.34 5.351 10.974 10.974 0 0 0 1.067 4.858l-1.87.343a.577.577 0 0 0-.421.33l-.801 1.778a.578.578 0 0 0 1.05.474l.679-1.502 5.888-1.082-2.986 3.682a2.109 2.109 0 0 0-2.461.61c-.73.9-.59 2.23.31 2.96.902.731 2.229.59 2.96-.31a2.105 2.105 0 0 0 .087-2.532l2.987-3.683.156 5.986-6.27 4.588-3.867-3.137.62-1.37a.578.578 0 0 0-1.053-.475l-.77 1.709-1.795 2.213-.885-.72a.578.578 0 0 0-.812.087l-2.205 2.718a.578.578 0 0 0 .084.813l7.224 5.857c.248.201.61.164.811-.084l2.207-2.718a.578.578 0 0 0-.086-.813l-.885-.717 1.795-2.212 6.813-4.987a.577.577 0 0 0 .236-.48l-.049-1.905a11.18 11.18 0 0 0 4.973.026 11.824 11.824 0 0 0 4.959-2.397l.66.535c.248.201.61.164.81-.084l1.674-2.062a.578.578 0 0 0-.084-.813l-2.064-1.671a.576.576 0 0 0-.81.084l-1.674 2.062a.578.578 0 0 0 .086.813l.486.394c-2.578 2.01-6.022 2.743-9.047 1.914l-.125-4.746-.002-.016c0-.013 0-.026-.002-.039 0-.007-.003-.015-.004-.023l-.006-.035c-.001-.008-.003-.014-.006-.022l-.011-.037-.008-.02a.58.58 0 0 0-.016-.036l-.008-.018c-.006-.013-.014-.025-.021-.037l-.008-.014c-.008-.013-.018-.025-.027-.037l-.008-.012-.031-.037-.01-.01a.596.596 0 0 0-.045-.04c-.016-.014-.034-.025-.05-.036l-.01-.007a.587.587 0 0 0-.043-.024l-.014-.006a.537.537 0 0 0-.041-.017l-.016-.006-.04-.014-.018-.004a1.008 1.008 0 0 0-.041-.008c-.007 0-.013 0-.02-.002l-.039-.003h-.059c-.007 0-.015 0-.023.002l-.04.003-.015.002-4.672.86c-1.475-2.802-1.468-6.257.008-9.25l.489.396c.247.201.61.162.81-.086l1.674-2.062a.576.576 0 0 0-.084-.81L21.855 8.69a.571.571 0 0 0-.421-.125zm.144 1.385l1.166.947-.947 1.166-1.166-.947.947-1.166zM37.184 22.61l1.166.946-.946 1.166-1.168-.946.948-1.166zm-20.918 4.004a.576.576 0 1 0 0 0zm4.191.795a.951.951 0 1 1-.5 1.684.951.951 0 0 1 .5-1.684zm-5.797 4.473l3.66 2.969-1.478 1.822-3.66-2.969 1.478-1.822zm-3.539 1.637l6.328 5.132-1.478 1.823-6.328-5.131 1.478-1.824z" color="#000" font-weight="400" font-family="Andale Mono" overflow="visible" fill="#e6e6e6"/></svg>
